X:303
T:Amatun. RH.303
R:Strathspey
S:Rev.R.Harrison’s MS,c1815,Cumbria
O:England
A:Temple Sowerby,Cumbria
Z:vmp.Simon Wilson. Review PJH, 2008.
M:C|
L:1/8
Q:1/2=60
K:C
D|G<GB>G c>AF>A|G<GB>c d>BG>B|\
d>ef>d c>AF>A|d>Bc>AG2G:|!
|:d|g>dB>G A>Fc>A|g>dB>c d>gB>c|\
d>gB>d c>eA>c|d>Bc>AG2G:|

